src/components/Icon/assets/clock.svg

<svg width="24" height="24" viewBox="0 0 24 24" fill="none" xmlns="http://www.w3.org/2000/svg">
<g id="clock">
<path id="Union" fill-rule="evenodd" clip-rule="evenodd" d="M20.0488 11.999C20.0488 16.4368 16.4378 20.0478 12 20.0478C7.56224 20.0478 3.95123 16.4368 3.95123 11.999C3.95123 7.56209 7.56238 3.95122 12 3.95122C16.4376 3.95122 20.0488 7.56209 20.0488 11.999ZM2 11.999C2 17.5144 6.4846 21.999 12 21.999C17.5154 21.999 22 17.5144 22 11.999C22 6.48443 17.5152 2 12 2C6.48477 2 2 6.48443 2 11.999ZM11 12.5384V6H13V11.3156L16.5298 13.1229L15.6182 14.9031L11 12.5384Z" fill="#242428"/>
</g>
</svg>

<svg xmlns="http://www.w3.org/2000/svg" width="24" height="24" fill="none" viewBox="0 0 24 24">
    <path fill="#65676A" fill-rule="evenodd" d="M20.049 11.999c0 4.438-3.611 8.049-8.049 8.049-4.438 0-8.049-3.611-8.049-8.049 0-4.437 3.611-8.048 8.049-8.048 4.438 0 8.049 3.611 8.049 8.048zM2 11.999c0 5.515 4.485 10 10 10s10-4.485 10-10S17.515 2 12 2 2 6.484 2 11.999zm9 .54V6h2v5.316l3.53 1.807-.912 1.78L11 12.538z" clip-rule="evenodd"/>
</svg>
